img/black-mail.svg

<svg width="24" height="24" viewBox="0 0 24 24" fill="none" xmlns="http://www.w3.org/2000/svg">
<g opacity="0.4">
<path d="M12 0C5.371 0 0 5.373 0 12C0 18.629 5.371 24 12 24C18.626 24 24 18.629 24 12C24 5.373 18.626 0 12 0ZM19.177 7.028L19.194 7.031L12.497 13.729C12.273 13.952 11.88 13.952 11.656 13.727L4.95599 7.028H19.177ZM4.48901 7.477C4.48901 7.472 4.492 7.469 4.492 7.469L9.04303 12.018L4.48901 16.572V7.477ZM4.93701 17.098C4.91701 17.098 4.89799 17.088 4.87799 17.085L9.49402 12.47L11.203 14.179C11.434 14.412 11.746 14.539 12.077 14.539C12.405 14.539 12.717 14.412 12.948 14.179L14.601 12.525L19.173 17.098H4.93701ZM19.626 16.646L15.054 12.074L19.626 7.502V16.646Z" fill="black"/>
</g>
</svg>

<svg width="24" height="24" fill="none" xmlns="http://www.w3.org/2000/svg"><path d="M12 0C5.371 0 0 5.373 0 12c0 6.629 5.371 12 12 12 6.626 0 12-5.371 12-12 0-6.627-5.374-12-12-12zm7.177 7.028l.017.003-6.697 6.698a.61.61 0 01-.841-.002l-6.7-6.699h14.221zm-14.688.449c0-.005.003-.008.003-.008l4.551 4.549-4.554 4.554V7.477zm.448 9.621c-.02 0-.039-.01-.059-.013l4.616-4.615 1.709 1.709c.231.233.543.36.874.36.328 0 .64-.127.871-.36l1.653-1.654 4.572 4.573H4.937zm14.689-.452l-4.572-4.572 4.572-4.572v9.144z" fill="#000" opacity=".4"/></svg>
